.cursor/plugins/cache/cursor-public/functions/release_v0.2.3/assets/logo.svg

<svg width="100" height="100" viewBox="0 0 100 100" fill="none" xmlns="http://www.w3.org/2000/svg">
<g clip-path="url(#clip0_2212_248)">
<path d="M0 0H100V100H0V0Z" fill="#F03603"/>
<path d="M36 72.2222V27.7778H51.2381C57.5873 27.7778 62.6667 32.8571 62.6667 39.2063V41.746C62.6667 44.6667 61.5873 47.3968 59.7461 49.3651C62.2858 51.4603 63.9366 54.6349 63.9366 58.254V60.7936C63.9366 67.1428 58.8572 72.2222 52.508 72.2222H36ZM42.3493 65.873H52.508C55.3651 65.873 57.5873 63.6508 57.5873 60.7936V58.254C57.5873 55.3968 55.3651 53.1746 52.508 53.1746H42.3493V65.873ZM42.3493 46.8254H51.2381C54.0953 46.8254 56.3175 44.6032 56.3175 41.746V39.2063C56.3175 36.3492 54.0953 34.127 51.2381 34.127H42.3493V46.8254Z" fill="white"/>
</g>
<defs>
<clipPath id="clip0_2212_248">
<rect width="100" height="100" fill="white"/>
</clipPath>
</defs>
</svg>

<svg xmlns="http://www.w3.org/2000/svg" width="100" height="100" fill="none" viewBox="0 0 100 100"><g clip-path="url(#a)"><path fill="#f03603" d="M0 0h100v100H0z"/><path fill="#fff" d="M36 72.222V27.778h15.238c6.35 0 11.429 5.08 11.429 11.428v2.54c0 2.92-1.08 5.65-2.92 7.62a11.47 11.47 0 0 1 4.19 8.888v2.54c0 6.349-5.08 11.428-11.429 11.428zm6.35-6.349h10.158c2.857 0 5.08-2.222 5.08-5.08v-2.539c0-2.857-2.223-5.08-5.08-5.08H42.349zm0-19.048h8.888c2.857 0 5.08-2.222 5.08-5.079v-2.54c0-2.857-2.223-5.079-5.08-5.079H42.35z"/></g><defs><clipPath id="a"><path fill="#fff" d="M0 0h100v100H0z"/></clipPath></defs></svg>
